dist/svg/chef-hat-fill.svg

<svg xmlns="http://www.w3.org/2000/svg" viewBox="0 0 24 24"><path d="M11.54 3.279c-1.164.109-2.157.601-3.011 1.494a4.3 4.3 0 0 0-.837 1.216l-.139.301-.267-.022c-.357-.029-1.068.035-1.442.131a4.77 4.77 0 0 0-3.427 3.38 4.72 4.72 0 0 0 .619 3.821c.44.675 1.18 1.328 1.879 1.66l.325.154v1.823c0 1.207.015 1.877.045 1.982.056.204.292.44.496.496.225.063 12.213.063 12.438 0a.82.82 0 0 0 .496-.496c.03-.105.045-.775.045-1.982v-1.823l.325-.154c.699-.332 1.439-.985 1.879-1.66a4.72 4.72 0 0 0-.539-5.871 4.7 4.7 0 0 0-2.269-1.33c-.374-.096-1.085-.16-1.442-.131l-.267.022-.139-.301c-.509-1.102-1.567-2.061-2.717-2.464a5.1 5.1 0 0 0-2.051-.246m-4.18 8.062c.159.082.222.168 1.155 1.569l.886 1.33-.911-.001-.91-.001-.629-.949c-.346-.522-.649-1.008-.674-1.08-.057-.163-.02-.43.082-.598.192-.315.665-.443 1.001-.27m5.005.002a.8.8 0 0 1 .353.448c.024.087.042.631.042 1.299v1.15h-1.52v-1.15c0-.668.018-1.212.042-1.299.045-.164.2-.368.332-.439a.87.87 0 0 1 .751-.009m5.013.03c.29.159.447.54.345.836-.025.072-.328.558-.674 1.08l-.629.949-.911.001-.91.001.93-1.388c.512-.764.978-1.423 1.036-1.464.227-.164.531-.169.813-.015M17.24 17v1.24H6.76v-2.48h10.48z"/></svg>

<svg fill="none" xmlns="http://www.w3.org/2000/svg" viewBox="0 0 24 24"><path d="M11.540 3.279 C 10.376 3.388,9.383 3.880,8.529 4.773 C 8.162 5.158,7.901 5.536,7.692 5.989 L 7.553 6.290 7.286 6.268 C 6.929 6.239,6.218 6.303,5.844 6.399 C 4.173 6.828,2.860 8.123,2.417 9.779 C 2.068 11.082,2.291 12.460,3.036 13.600 C 3.476 14.275,4.216 14.928,4.915 15.260 L 5.240 15.414 5.240 17.237 C 5.240 18.444,5.255 19.114,5.285 19.219 C 5.341 19.423,5.577 19.659,5.781 19.715 C 6.006 19.778,17.994 19.778,18.219 19.715 C 18.423 19.659,18.659 19.423,18.715 19.219 C 18.745 19.114,18.760 18.444,18.760 17.237 L 18.760 15.414 19.085 15.260 C 19.784 14.928,20.524 14.275,20.964 13.600 C 22.178 11.740,21.956 9.326,20.425 7.729 C 19.791 7.068,19.034 6.624,18.156 6.399 C 17.782 6.303,17.071 6.239,16.714 6.268 L 16.447 6.290 16.308 5.989 C 15.799 4.887,14.741 3.928,13.591 3.525 C 12.978 3.310,12.203 3.217,11.540 3.279 M7.360 11.341 C 7.519 11.423,7.582 11.509,8.515 12.910 L 9.401 14.240 8.490 14.239 L 7.580 14.238 6.951 13.289 C 6.605 12.767,6.302 12.281,6.277 12.209 C 6.220 12.046,6.257 11.779,6.359 11.611 C 6.551 11.296,7.024 11.168,7.360 11.341 M12.365 11.343 C 12.514 11.419,12.670 11.617,12.718 11.791 C 12.742 11.878,12.760 12.422,12.760 13.090 L 12.760 14.240 12.000 14.240 L 11.240 14.240 11.240 13.090 C 11.240 12.422,11.258 11.878,11.282 11.791 C 11.327 11.627,11.482 11.423,11.614 11.352 C 11.831 11.235,12.147 11.232,12.365 11.343 M17.378 11.373 C 17.668 11.532,17.825 11.913,17.723 12.209 C 17.698 12.281,17.395 12.767,17.049 13.289 L 16.420 14.238 15.509 14.239 L 14.599 14.240 15.529 12.852 C 16.041 12.088,16.507 11.429,16.565 11.388 C 16.792 11.224,17.096 11.219,17.378 11.373 M17.240 17.000 L 17.240 18.240 12.000 18.240 L 6.760 18.240 6.760 17.000 L 6.760 15.760 12.000 15.760 L 17.240 15.760 17.240 17.000 " stroke="none" fill-rule="evenodd"/></svg>
